X:3301
T:Concertina Reel, New
M:4/4
L:1/8
R:Reel
K:G
|ef|:g2gf~g2dg|~g2fg edBd|edfd edfd|edfd edBd|
|~g3f~g2dg|~g2fg edBA|Bdef~g3e|1dBAB GABd:|2dBAB~G3|
|:A|Bddd Bddd|Bddd edBd|edfd edfd|edfd edBA|
|Bddd Bddd|Bddd edBA|(3Bcd ef~g3e|1dBAB~G3:|2dBABG2(3def|


